X: 27016
T: Miss Girdle
R: reel
M: 4/4
K: Dmajor
|:d2 dB cABG|d2 dB cdef|d2 dB cABG|gfed cdef:|
d2 fd adfd|d2 fd cdef|d2 fd adfd|gfed cdef|
d2 fd adfd|d2 fd cdef|afge fdef|gfed cdef||

